X: 1
T: Maid of the Oaks
C: J-9
M: 6/8
Z: Transcribed to abc by Mary Lou Knack
R: jig
K: D
f| "A"edc "D"dcd| "A"edc "D"d2A| "G"Bcd "A"efg| "D"f3 d2f|
   "A"edc "D"dcd| "A"edc "D"d2f| "E"efd cdB| "A"B3 A2 :|
|:\
f| "A"ece ece| gee ece| "G"Bcd "Em"efg| "D"d3 "A"c2A|
   "G"Bcd "D"AFA| "G"Bcd "D"A2 g|fed "A"edc| "D"d3 d2 :|
%%text 9/1/98
